symbols/web/filter_9_plus/materialsymbolssharp/filter_9_plus_wght300fill1_20px.svg

<svg xmlns="http://www.w3.org/2000/svg" height="20" width="20"><path d="M8.292 11.333h3.125V5.167h-3.75v3.75h2.416V10H8.292Zm1.791-3.75H9V6.5h1.083Zm-4.708 6.834V2.083h12.333v12.334ZM2.292 17.5V5.417h1.333v10.75h10.75V17.5Zm11.166-7.125h1.334V8.917h1.458V7.583h-1.458V6.125h-1.334v1.458H12v1.334h1.458Z"/></svg>

<svg xmlns="http://www.w3.org/2000/svg" height="20" width="20"><path d="M8.292 11.333H11.417V5.167H7.667V8.917H10.083V10H8.292ZM10.083 7.583H9V6.5H10.083ZM5.375 14.417V2.083H17.708V14.417ZM2.292 17.5V5.417H3.625V16.167H14.375V17.5ZM13.458 10.375H14.792V8.917H16.25V7.583H14.792V6.125H13.458V7.583H12V8.917H13.458Z"/></svg>
